X:290
%%etbk:tnset id:88,pos:3,rep:3x,ant:
%%etbk:wsite http://www.thesession.org/tunes/display/1283
%%etbk:pldat 2016-09-06T17:42,2016-08-05T17:26,2015-04-21T15:31,2015-03-26T18:41,2014-12-27T14:48,2014-12-08T18:53,2014-12-03T17:43,2014-12-02T17:11,2014-05-11T12:09,2014-04-28T18:20,2014-04-06T15:24,2014-03-15T15:26,2014-02-27T18:51,2014-02-26T17:21,2014-02-14T17:23,2014-02-11T18:00,2014-02-09T13:29,2013-11-06T16:44,2013-10-24T18:04,2013-10-23T18:46,2013-10-21T17:35,2013-10-20T14:01,2013-09-12T18:09,2013-08-29T16:05,2013-08-26T18:17,2013-05-13T19:09,2013-05-12T18:51,2013-05-09T17:30,2013-05-02T18:33
T: Flowers Of Spring, The
Z: Piano Box Version by Martin Fleischmann
H: Created 2013-02-19 /  Last Modified 2013-02-19
M: 6/8
L: 1/8
R: jig
K: Ador
|: "am"!1!A!2!A!1!A !1!AB!4!d | "G"!5!ed!2!B !1!G2!2!B | !4!d!2!BB !1!G!2!BB | "am"!1!AB!4!d !2!efg |
"am"!1!A !3!(3A!2!A!1!A !1!AB!4!d | "G"!5!ed!2!B !1!G2!2!B | !4!d!2!BB !1!G!2!BB | "am"!1!ABA A3 :|
|: "am"!2!e!4!aa aga | "G"!5!b!1!d!5!b !4!ag!2!e | !2!e2!1!G !1!G!2!B!4!d | !5!e2!2!e !4!ged |
"am"!2!e!4!aa aga | "G"!5!b!1!d!5!b !4!ag!2!e | !2!e!4!ge !1!d!2!B!1!G | "am"!1!ABA A3:||


